X:11
T:The Parson in the Boots
O:No 11 Page 4 William Clarke of Feltwell  MS 1858
I:abc2nwc
M:6/8
L:1/8
K:G
B/2c/2|d2d d2d|dec BAB|cdc edc|
BGB d3|d2d d2d|dec BAB|cdc efg|fdB c2:|
|:e/2f/2|g2e f2d|e2c BAB|cdc edc|
BGB def|g2e f2d|e2d BAB|cdc efg|fdB c2:|


